X: 4416
T: CUCKOO VALSE
C: Carl Volti
R: Waltz
%R: waltz
B: James Kerr "Merry Melodies" v.4 p.46 #416
Z: 2016 John Chambers <jc:trillian.mit.edu>
M: 3/4
L: 1/8
K: G
|:!p!\
d2B4 | d2B4 | (gf)agfe | d6 |\
[1,3 c2A4 | B2G4 | (EF)GBAG | (FG)ABc^c :|\
[2,4 c2a4 | B2g4 | (fe)dcBA | G2z2z2 ||
|:!mf!\
AB^cded | d^cg2g2 | B2^c3B | A4z2 |\
[1,3 AB^cded | d^ca2a2 | g2a3g | f4z2 :|\
[2,4 B^c^defg | bagfed | ^cBAGFE | D2d2"_D.C."z2 ||
[K:=f][K:C]\
[|!p!\
G6- | G2(c2B2) | A6- | A2(d2c2) |\
B6- | B2(e2d2) | c2e2d2 | c2B2A2 |\
G6- | G2(c2B2) | A6- | A2(d2c2) |\
B6- | B2(a2g2) | f2e2d2 | c2z2"_D.C."z2 |]

%%sep 1 1 500
%%sep 1 1 500

